public/.tmp/assets/graphics/icons/audio.svg

<svg id="Layer_1" xmlns="http://www.w3.org/2000/svg" viewBox="0 0 217.7 308.4"><style>.st0{fill:#fff}</style><path class="st0" d="M108.8 99.8c15 0 27.2-12.2 27.2-27.2s-12.2-27.2-27.2-27.2-27.2 12.2-27.2 27.2 12.2 27.2 27.2 27.2zm0-36.3c5 0 9.1 4.1 9.1 9.1s-4.1 9.1-9.1 9.1-9.1-4.1-9.1-9.1c.1-5 4.1-9.1 9.1-9.1zM0 0v308.4h217.7V0H0zm199.5 290.2H18.1V18.1h181.4v272.1zM108.8 263c35.1 0 63.5-28.4 63.5-63.5S143.9 136 108.8 136s-63.5 28.4-63.5 63.5c.1 35.1 28.5 63.5 63.5 63.5zm0-108.8c25.1 0 45.4 20.3 45.4 45.4 0 25.1-20.3 45.3-45.4 45.3-25.1 0-45.3-20.3-45.3-45.3 0-25.1 20.3-45.4 45.3-45.4zm0 63.5c10 0 18.1-8.1 18.1-18.1 0-10-8.1-18.1-18.1-18.1-10 0-18.1 8.1-18.1 18.1 0 10 8.1 18.1 18.1 18.1zm0 0"/></svg>

<?xml version="1.0" encoding="utf-8"?>
<!-- Generator: Adobe Illustrator 19.2.1, SVG Export Plug-In . SVG Version: 6.00 Build 0)  -->
<svg version="1.1" id="Layer_1" xmlns="http://www.w3.org/2000/svg" xmlns:xlink="http://www.w3.org/1999/xlink" x="0px" y="0px"
	 viewBox="0 0 217.7 308.4" style="enable-background:new 0 0 217.7 308.4;" xml:space="preserve">
<style type="text/css">
	.st0{fill:#FFFFFF;}
</style>
<g>
	<path class="st0" d="M108.8,99.8c15,0,27.2-12.2,27.2-27.2c0-15-12.2-27.2-27.2-27.2c-15,0-27.2,12.2-27.2,27.2
		C81.6,87.6,93.8,99.8,108.8,99.8L108.8,99.8z M108.8,63.5c5,0,9.1,4.1,9.1,9.1c0,5-4.1,9.1-9.1,9.1c-5,0-9.1-4.1-9.1-9.1
		C99.8,67.6,103.8,63.5,108.8,63.5L108.8,63.5z M0,0v308.4h217.7V0H0z M199.5,290.2H18.1V18.1h181.4V290.2z M108.8,263
		c35.1,0,63.5-28.4,63.5-63.5c0-35.1-28.4-63.5-63.5-63.5c-35.1,0-63.5,28.4-63.5,63.5C45.4,234.6,73.8,263,108.8,263L108.8,263z
		 M108.8,154.2c25.1,0,45.4,20.3,45.4,45.4c0,25.1-20.3,45.3-45.4,45.3c-25.1,0-45.3-20.3-45.3-45.3
		C63.5,174.5,83.8,154.2,108.8,154.2L108.8,154.2z M108.8,217.7c10,0,18.1-8.1,18.1-18.1c0-10-8.1-18.1-18.1-18.1
		c-10,0-18.1,8.1-18.1,18.1C90.7,209.6,98.8,217.7,108.8,217.7L108.8,217.7z M108.8,217.7"/>
</g>
</svg>
